src/assets/footer/facebook.svg

<svg width="35" height="35" viewBox="0 0 35 35" fill="none" xmlns="http://www.w3.org/2000/svg">
    <path fill-rule="evenodd" clip-rule="evenodd" d="M17.4441 0.530273C20.5991 0.566276 23.4493 1.34168 25.9948 2.8565C28.5099 4.34106 30.6021 6.44606 32.0713 8.97019C33.5769 11.531 34.3477 14.3985 34.3835 17.5727C34.2941 21.9158 32.9243 25.6253 30.274 28.701C27.6237 31.7768 24.2293 33.6796 20.7155 34.4091V22.2324H24.0375L24.7888 17.4472H19.7584V14.3131C19.7305 13.6634 19.936 13.0251 20.3377 12.5137C20.74 12.0008 21.4484 11.7313 22.463 11.7051H25.5006V7.51337C25.4571 7.49934 25.0435 7.44389 24.2599 7.34701C23.3713 7.24304 22.4776 7.1875 21.583 7.18065C19.558 7.18999 17.9566 7.76119 16.7786 8.89424C15.6006 10.027 14.9988 11.6658 14.9733 13.8107V17.4472H11.1452V22.2324H14.9733V34.4091C10.6588 33.6796 7.26444 31.7768 4.61414 28.701C1.96385 25.6252 0.594066 21.9158 0.504639 17.5727C0.540418 14.3984 1.31114 11.5308 2.8168 8.97019C4.28603 6.44606 6.37825 4.34107 8.89338 2.8565C11.4388 1.34198 14.289 0.566568 17.4441 0.530273Z" fill="#EF4934"/>
</svg>

<svg width="35" height="35" fill="none" xmlns="http://www.w3.org/2000/svg"><path fill-rule="evenodd" clip-rule="evenodd" d="M17.444.53c3.155.036 6.005.812 8.55 2.327a17.072 17.072 0 0 1 6.077 6.113c1.506 2.561 2.277 5.428 2.313 8.603-.09 4.343-1.46 8.052-4.11 11.128-2.65 3.076-6.045 4.979-9.559 5.708V22.232h3.323l.75-4.785h-5.03v-3.134a2.724 2.724 0 0 1 .58-1.8c.402-.512 1.11-.782 2.125-.808h3.038V7.513c-.044-.014-.457-.07-1.241-.166a24.66 24.66 0 0 0-2.677-.166c-2.025.009-3.626.58-4.804 1.713-1.178 1.133-1.78 2.772-1.806 4.917v3.636h-3.828v4.785h3.828V34.41c-4.314-.73-7.709-2.632-10.359-5.708-2.65-3.076-4.02-6.785-4.11-11.128.036-3.175.807-6.042 2.313-8.603a17.072 17.072 0 0 1 6.076-6.114C11.44 1.343 14.29.567 17.444.53Z" fill="#EF4934"/></svg>
